X:431
T:Reel 431
M:4/4
K:Amaj
L:1/8
E>A, (3A,A,A, A,>C (3CDC |F>B, (3B,A,B, F>B, (3B,A,B, |A,>G, (3G,A,B, E>B, (3B,CD |FBBA GFED|C>A, (3A,A,A, E,A,C (3A,B,A, |C>A, (3CB,A, A2GA|BAGE FEDC|B,A,G,B, =GED2|C>A, (3A,A,A, A,>A, (3A,A,A, |B,>A, (3A,A,A, E2DC|D>B, (3B,B,B, F>B, (3B,B,B, |DB,FB, DB,FG|A>A, (3A,A,A, CA,A,A,|CA,A,C E>A, (3CB,A, |DB,GA GFED| (3CDC B,A, G,A,B,G,|
